X:1
T:Title
%%score 1 2
L:1/8
Q:1/4=83
M:2/4
K:Bb
V:1 treble nm="Grand Piano, Soprano"
V:2 bass nm="Choir Pad, The Little Missionary"
V:1
 [DF][DF] [DB][DB] | [DA][Ec] [EB][EB] | [EG][DF] [EG][DF] | [CE] [B,D]3 | [CE][DF] [DB][DB] | %5
w: By~James~Ramsey~Murray,~1883 * * *|||||
 [DA][Ec] [EB][EB] | [EG][DF] [DB][Ec] | [Fd] [DB]3 | [Fd][Fc] [FA][EG] | [EF][EG] [DF][DF] | %10
w: |||||
 [DF][B,D] [DF][FB] | [Fd] [Fc]3 | [Fc][Fd] [Ec][DB] | F[EA] [EG][EG] | [EG][DF] [DB][Ec] | %15
w: |||||
 [Fd] [DB]3 | [DF][Fd]- [Fd]/[Fd]/[Ec] | [FB][GB] [EG]2 | [EG][=Ec]- [Ec]/[Ec]/[Fc] | [GB] [FA]3 | %20
w: |||||
 [EF][Fd]- [Fd]/[Fd]/[Ec] | [FB][GB] [EG]2 | [EG][DF] [DB][Ec] | [Fd] [DB]3- | [DB]4 |] %25
w: |||||
V:2
 [B,,B,][B,,B,] [B,,F,][B,,F,] | [B,,F,][E,G,] [E,G,][E,G,] | [E,B,][F,B,] [F,A,][F,B,] | %3
 [F,A,] [B,,F,]3 | [B,,F,][B,,B,] [B,,F,][B,,F,] | [B,,F,][E,G,] [E,G,][E,G,] | [E,B,][F,B,] F,F, | %7
 F, [B,,F,]3 | [B,,B,][F,A,] [F,C][F,A,] | [F,A,][B,,B,] [B,,B,][B,,B,] | %10
 [B,,F,][B,,F,] [B,,B,][D,B,] | [B,,B,] [F,A,]3 | [F,A,]B, [F,A,][G,B,] | %13
 [D,A,][E,B,] [E,B,][E,B,] | [E,B,]F, F,F, | F, [B,,F,]3 | [B,,B,][B,,B,]- [B,,B,]/[B,,B,]/[C,A,] | %17
 [D,B,][E,B,] [E,B,]2 | [E,B,][C,B,]- [C,B,]/[C,C]/[D,C] | [=E,C] [F,C]3 | %20
 [F,A,][B,,B,]- [B,,B,]/[B,,B,]/[C,A,] | [D,B,][E,B,] [E,B,]2 | [E,B,][F,B,] F,F, | F, [B,,F,]3- | %24
 [B,,F,]4 |] %25

